X: 268
T: Bears of Baffin (hornpipe)
C: BB 01/09
N: 022261
M: 4/4
L: 1/8
Q: 320 
R: hornpipe
K: Em
F | "Em"EFGA BEGE | "D"DEFG ABAF | "Em"EFGA "Bm"BABd | "Em"edBd "C"e3f |
"Em"gfed edBd | "Am"cBAG "D"FGAF | "Em"EFGA BedB | "D"AGFD "Em"E3 :|
B |"Em"efg\.ie bage | "D"defd agfd | "Em"efgB "Am"c\.ieag| "D"(3fg\.if df "Em"e3f|
"G"ge (3ede Bege | "D"fd (3d^cd Adfa | "Em"gebe "D"fdad | "Em"edBd "Em"e3 :|
%%%%%%%%%%%%%%%%%%%%%%%%%%%%%%%
